X:129
T:Pea Straw. RH.129
R:Reel
S:Rev.R.Harrison’s MS,c1815,Cumbria
N:A useful tune if you repeat the A music. PJH.
O:England
A:Temple Sowerby,Cumbria
Z:vmp.Simon Wilson. Review PJH, 2008.
M:C
L:1/8
Q:1/2=90
K:D
A|defd g2f2|eAAB =c2BA|\
defd g2f2|eAAc d2z||!
g|((3faf) dg ((3faf) df|eAAB =c2cg|\
((3faf) dg ((3faf) df|eAAc d2dg|!
((3faf) dg ((3faf) df|eAAB =c2cg|\
afge fdec|dgfe d3|]

